!!!COM: Palestrina, Giovanni Perluigi da
!!!OPR: In festis Apostolorum (I)
!!!OTL: Sanctus
**kern	**kern	**kern	**kern	**kern
*Ibass	*Itenor	*Itenor	*Icalto	*Icant
!Bassus	!Tenor 2	!Tenor 1	!Altus	!Cantus
*clefF4	*clefGv2	*clefGv2	*clefG2	*clefG2
*k[]	*k[]	*k[]	*k[]	*k[]
*D:dor	*D:dor	*D:dor	*D:dor	*D:dor
*M4/2	*M4/2	*M4/2	*M4/2	*M4/2
=1	=1	=1	=1	=1
0r	2.D	0r	0r	0d
.	4E	.	.	.
.	2F	.	.	.
.	2G	.	.	.
=2	=2	=2	=2	=2
0r	2F	0r	2.A	0a
.	2D	.	.	.
.	.	.	4B	.
.	2A	.	2c	.
.	2D	.	2d	.
=3	=3	=3	=3	=3
0r	1.A	0r	2c	1.cc
.	.	.	2A	.
.	.	.	[1e	.
.	4G	.	.	4b
.	4F	.	.	4a
=4	=4	=4	=4	=4
0r	1.E	0r	2e]	2.g
.	.	.	4d	.
.	.	.	4c	4f
.	.	.	2B	2g
.	2F#	.	2A	2a
=5	=5	=5	=5	=5
0r	2G	0r	2B	2g
.	2D	.	1d	2f
.	1A	.	.	1e
.	.	.	2c#	.
=6	=6	=6	=6	=6
0r	2.F	0D	2.d	1d
.	4G	.	4e	.
.	4A	.	1f	2.a
.	4D	.	.	.
.	2d	.	.	.
.	.	.	.	4b
=7	=7	=7	=7	=7
2.AA	2.c	0A	1.e	2cc
.	.	.	.	2c
4BB	4B	.	.	.
2C	4A	.	.	2e
.	4G	.	.	.
2D	2F	.	2d	2f
=8	=8	=8	=8	=8
2C	2E	1.c	1.e	2g
2AA	2.E	.	.	2a
[1E	.	.	.	1g
.	4F	.	.	.
.	[2G	4B	4d	.
.	.	4A	4c	.
=9	=9	=9	=9	=9
2E]	4G]	2G	2B	2r
.	4E	.	.	.
4D	2A	2F	1d	2a
4C	.	.	.	.
2BB	2D	2G	.	2b
2AA	[2E	2A	2c	[2cc
=10	=10	=10	=10	=10
2C	2E]	2G	2e	2cc]
2D	2.A	2F	1d	2a
1AA	.	1E	.	1a
.	4G	.	.	.
.	2E	.	2c#	.
=11	=11	=11	=11	=11
[0D	[0F#	[0D	[0d	[0a
=12	=12	=12	=12	=12
0D]	0F#]	0D]	0d]	0a]
=13	=13	=13	=13	=13
0r	0r	1A	0r	0r
.	.	1B	.	.
=14	=14	=14	=14	=14
1D	0r	2A	0r	0r
.	.	1d	.	.
1E	.	.	.	.
.	.	2c	.	.
=15	=15	=15	=15	=15
1D	0r	2B	1r	0r
.	.	2A	.	.
[1G	.	[1B	1d	.
=16	=16	=16	=16	=16
2G]	0r	2B]	1e	0r
4F	.	4A	.	.
4E	.	4G	.	.
2F	.	2A	1d	.
2G	.	[2d	.	.
=17	=17	=17	=17	=17
1E	1r	2d]	1.g	0r
.	.	2c#	.	.
1D	1A	1d	.	.
.	.	.	2f	.
=18	=18	=18	=18	=18
1G	1B	0r	2e	0r
.	.	.	1d	.
2F	1A	.	.	.
[2A	.	.	2c	.
=19	=19	=19	=19	=19
2A]	1.d	1r	1B	0r
2G#	.	.	.	.
1A	.	2r	2A	.
.	4c	[2A	[2e	.
.	4B	.	.	.
=20	=20	=20	=20	=20
0r	2c	2A]	2e]	1a
.	2d	1d	2f#	.
.	1G	.	1g	1b
.	.	4c	.	.
.	.	4B	.	.
=21	=21	=21	=21	=21
0r	2A	2c	2e	1a
.	2D	2d	1a	.
.	2r	1B	.	[1dd
.	2d	.	2g#	.
=22	=22	=22	=22	=22
0r	2f	0A	1a	2dd]
.	2.e	.	.	4cc
.	.	.	.	4b
.	.	.	2.e	2cc
.	4d	.	.	.
.	4c	.	.	[2a
.	4B	.	4d	.
=23	=23	=23	=23	=23
0r	1A	1r	2c#	4a]
.	.	.	.	4g
.	.	.	1d	2f
.	1r	2.A	.	1e
.	.	.	2c#	.
.	.	4A	.	.
=24	=24	=24	=24	=24
2.D	0r	2A	1d	1.f
.	.	1d	.	.
4D	.	.	.	.
2D	.	.	2.A	.
[2A	.	[2c	.	2e
.	.	.	4A	.
=25	=25	=25	=25	=25
2A]	0r	2c]	2A	2f
2G	.	2B	1d	2g
2.F	.	2.A	.	[1a
.	.	.	2c	.
4E	.	4G	.	.
=26	=26	=26	=26	=26
2D	2.A	2F	2d	0a]
2C	.	2E	2e	.
.	4A	.	.	.
2.D	2A	4D	[1f	.
.	.	4E	.	.
.	[2d	4F	.	.
4E	.	4G	.	.
=27	=27	=27	=27	=27
4F	2d]	1A	2f]	0r
4G	.	.	.	.
1A	2c	.	4e	.
.	.	.	4d	.
.	2B	1E	2.e	.
2G#	2B	.	.	.
.	.	.	4d	.
=28	=28	=28	=28	=28
2.A	1.A	1e	4c	1r
.	.	.	4B	.
.	.	.	1c	.
4G	.	.	.	.
2F	.	1r	.	2.d
[2G	4G	.	2B	.
.	4A	.	.	4d
=29	=29	=29	=29	=29
2G]	4B	0r	2G	2d
.	4c	.	.	.
2F	2d	.	2A	1a
1E	1e	.	2B	.
.	.	.	2e	2g
=30	=30	=30	=30	=30
2F	0r	2.A	2.c	2f
2C	.	.	.	2e
.	.	4A	8d	.
.	.	.	8e	.
[1D	.	2A	[1f	2.d
.	.	[2d	.	.
.	.	.	.	4e
=31	=31	=31	=31	=31
2D]	2r	2d]	2f]	4f
.	.	.	.	4g
2AA	2.e	2c	2e	1a
1E	.	2B	2r	.
.	4e	.	.	.
.	2e	2B	[2e	2g#
=32	=32	=32	=32	=32
2.AA	2.c	0A	4e]	2a
.	.	.	4e	.
.	.	.	2e	1cc
4AA	4d	.	.	.
2AA	2e	.	2.a	.
[2D	2f	.	.	2a
.	.	.	4g	.
=33	=33	=33	=33	=33
2D]	2d	0r	2f	4b-
.	.	.	.	4a
2C	2.e	.	2e	1a
2BB-	.	.	2f	.
.	4d	.	.	.
2BB-	[2d	.	2d	2g
=34	=34	=34	=34	=34
1AA	2d]	1r	1e	2a
.	2c#	.	.	2.a
[1F	2d	2.D	[1d	.
.	.	.	.	4a
.	[2A	.	.	2a
.	.	4D	.	.
=35	=35	=35	=35	=35
2F]	4A]	2D	1d]	1dd
.	4A	.	.	.
2D	2A	1A	.	.
1E	2e	.	2r	2cc
.	2B	2G	[2e	[2b
=36	=36	=36	=36	=36
0r	2c	2F	2e]	4b]
.	.	.	.	4a
.	2A	2F	2d	1a
.	1B	1E	1e	.
.	.	.	.	2g#
=37	=37	=37	=37	=37
2.AA	[0A	2r	1.c#	[0a
.	.	1E	.	.
4AA	.	.	.	.
2AA	.	.	.	.
[2D	.	2F	2d	.
=38	=38	=38	=38	=38
2D]	0A]	2D	2f	0a]
2C#	.	2E	2e	.
2D	.	1F	1d	.
2D	.	.	.	.
=39	=39	=39	=39	=39
[0AA	[0A	[0E	[0c#	[0a
=40	=40	=40	=40	=40
0AA]	0A]	0E]	0c#]	0a]
*	*	*	*	*-
!! Pleni
*Itenor	*Itenor	*Icalto	*Icant
!Tenor 2	!Tenor 1	!Altus	!Cantus
*clefGv2	*clefGv2	*clefG2	*clefG2
*k[]	*k[]	*k[]	*k[]
*D:dor	*D:dor	*D:dor	*D:dor
*M4/2	*M4/2	*M4/2	*M4/2
=41	=41	=41	=41
0r	0r	0r	1d
.	.	.	1e
=42	=42	=42	=42
0r	0r	1d	1d
.	.	1e	[1g
=43	=43	=43	=43
0r	0r	1d	2g]
.	.	.	2f
.	.	[1g	4e
.	.	.	4f
.	.	.	4g
.	.	.	4a
=44	=44	=44	=44
0r	0r	2g]	4b
.	.	.	4cc
.	.	2f	2dd
.	.	4e	2cc
.	.	4f	.
.	.	4g	2b
.	.	4e	.
=45	=45	=45	=45
1A	0r	2f	2.a
.	.	2.e	.
.	.	.	4e
1B	.	.	4g
.	.	4d	4f
.	.	[2d	4e
.	.	.	4d
=46	=46	=46	=46
1A	0r	2d]	1e
.	.	2c	.
[1d	.	[1f	4d
.	.	.	4e
.	.	.	4f
.	.	.	4g
=47	=47	=47	=47
2d]	0r	2f]	4a
.	.	.	4b
2c	.	2e	2.a
1B	.	1d	.
.	.	.	4g
.	.	.	[2g
=48	=48	=48	=48
2A	1D	2.d	2g]
1d	.	.	2f#
.	.	4c	.
.	1E	4B	1g
.	.	4G	.
2c	.	[2g	.
=49	=49	=49	=49
2B	1D	2g]	1r
2A	.	2f#	.
2.B	[1G	2g	2r
.	.	2G	2d
4A	.	.	.
=50	=50	=50	=50
4B	2G]	2r	2e
4c	.	.	.
1d	2F	2A	2d
.	1E	2B	1g
2c	.	4G	.
.	.	4A	.
=51	=51	=51	=51
2.d	2.D	4B	1.f
.	.	4c	.
.	.	1d	.
8c	4E	.	.
8B	.	.	.
1A	4F	.	.
.	4G	.	.
.	[2A	2c	4e
.	.	.	4d
=52	=52	=52	=52
1E	2A]	1B	0e
.	2G#	.	.
2r	2.A	2.c	.
[2A	.	.	.
.	4G	8d	.
.	.	8e	.
=53	=53	=53	=53
4A]	2F	1f	2r
4G	.	.	.
4A	2D	.	2.a
4B	.	.	.
2.c	1A	[1e	.
.	.	.	4g
.	.	.	4a
4B	.	.	4b
=54	=54	=54	=54
2A	0r	1e]	2cc
2G	.	.	2.b
2c	.	2r	.
.	.	.	4a
2d	.	[2d	[2a
=55	=55	=55	=55
1B-	0r	4d]	2a]
.	.	4c	.
.	.	4d	2g
.	.	4e	.
2.A	.	2f	1a
.	.	[2e	.
4G	.	.	.
=56	=56	=56	=56
2F	0r	4e]	2r
.	.	4d	.
2G	.	1d	2.g
1E	.	.	.
.	.	.	4f
.	.	2c#	4g
.	.	.	4a
=57	=57	=57	=57
1D	2r	2.d	2b-
.	2.D	.	2a
.	.	8c	.
.	.	8B	.
2r	.	1A	2.f
.	4C	.	.
[2A	4D	.	.
.	4E	.	4g
=58	=58	=58	=58
4A]	2.F	2r	1.a
4G	.	.	.
4A	.	2f	.
4B	4G	.	.
2c	2A	2.e	.
[2B	2E	.	2g
.	.	4d	.
=59	=59	=59	=59
4B]	2F	2c	1f
4A	.	.	.
1A	2D	2d	.
.	1E	1B	[1e
2G#	.	.	.
=60	=60	=60	=60
4A	1A	2A	1e]
4B	.	.	.
4c	.	1a	.
4A	.	.	.
1B	2r	.	1d
.	[2d	2g	.
=61	=61	=61	=61
1A	2d]	2f	0r
.	2c	2e	.
1r	2B-	2d	.
.	2A	[2e	.
=62	=62	=62	=62
0r	1G	4e]	2r
.	.	4d	.
.	.	2g	1dd
.	1A	2f	.
.	.	[2e	2cc
=63	=63	=63	=63
0r	2.D	4e]	2b-
.	.	4d	.
.	.	1d	2a
.	4F	.	.
.	1E	.	1g
.	.	2c	.
=64	=64	=64	=64
2r	1D	1f	1a
1d	.	.	.
.	1r	2r	2d
2c	.	2e	2e
=65	=65	=65	=65
2B-	0r	2d	1f
2A	.	2f	.
1G	.	4e	1g
.	.	4d	.
.	.	[2d	.
=66	=66	=66	=66
1A	1r	2d]	2e
.	.	2c#	2.a
4D	2r	1d	.
4E	.	.	4g
4F	[2d	.	4a
4D	.	.	4f
=67	=67	=67	=67
1E	2d]	2r	1g
.	2c	1g	.
1D	2B-	.	1r
.	2A	2f	.
=68	=68	=68	=68
0r	1G	2e	2r
.	.	2d	2g
.	1A	1c	2f
.	.	.	2e
=69	=69	=69	=69
0r	4D	1d	4f
.	4D	.	4g
.	4F	.	2.a
.	4D	.	.
.	1E	4G	.
.	.	4A	4g
.	.	4B	[2g
.	.	4G	.
=70	=70	=70	=70
2r	1D	0A	2g]
1d	.	.	2f
.	2r	.	1e
2c	[2A	.	.
=71	=71	=71	=71
1B-	2A]	1r	2d
.	2G	.	1dd
2A	2F	2r	.
2G	2E	[2g	2cc
=72	=72	=72	=72
2.d	1D	2g]	2b-
.	.	2f	2a
4c	.	.	.
1B	1E	2.e	1g
.	.	4d	.
=73	=73	=73	=73
1A	2F	2c	1a
.	1D	1f	.
2r	.	.	2d
[2A	2C#	2e	2e
=74	=74	=74	=74
4A]	1D	1.d	2.f
4G	.	.	.
4F	.	.	.
4E	.	.	4g
2D	2.F	.	1a
[2d	.	2f	.
.	4G	.	.
=75	=75	=75	=75
2d]	0A	0e	[0a
4c#	.	.	.
4B	.	.	.
1c#	.	.	.
=76	=76	=76	=76
[0d	[0D	[0f#	1a_
.	.	.	1a_
=77	=77	=77	=77
0d]	0D]	0f#]	0a]
*-	*-	*-	*-
!! Hosanna
**kern	**kern	**kern	**kern	**kern
*Ibass	*Itenor	*Itenor	*Icalto	*Icant
!Bassus	!Tenor 2	!Tenor 1	!Altus	!Cantus
*clefF4	*clefGv2	*clefGv2	*clefG2	*clefG2
*k[]	*k[]	*k[]	*k[]	*k[]
*D:dor	*D:dor	*D:dor	*D:dor	*D:dor
*M3/2	*M3/2	*M3/2	*M3/2	*M3/2
=78	=78	=78	=78	=78
1r	2A	1r	1r	1r
.	2B	.	.	.
2r	2A	2r	2r	2r
=79	=79	=79	=79	=79
2r	1d	1r	1r	1r
2D	.	.	.	.
2E	2c	2r	2r	2r
=80	=80	=80	=80	=80
2D	2.B	1r	2r	1r
1G	.	.	2d	.
.	4A	.	.	.
.	4B	2r	2e	2r
.	4c	.	.	.
=81	=81	=81	=81	=81
2F	1d	1r	2d	1r
1E	.	.	1g	.
.	2c#	2r	.	2r
=82	=82	=82	=82	=82
2D	1.d	2r	2.f	1r
2F	.	2A	.	.
.	.	.	4e	.
2G	.	2B	2d	2r
=83	=83	=83	=83	=83
1A	1r	2A	2c	1r
.	.	1d	1B	.
2G	2r	.	.	2r
=84	=84	=84	=84	=84
2A	1r	2c	2A	2r
2D	.	1d	2f	2a
2r	2r	.	2d	2b
=85	=85	=85	=85	=85
1r	2r	2c	2e	2a
.	2r	1B-	2f	1dd
2r	2d	.	2g	.
=86	=86	=86	=86	=86
1r	2e	1A	2a	2.cc
.	2c	.	2e	.
.	.	.	.	4b
2r	2d	2D	2f	2a
=87	=87	=87	=87	=87
1r	2G	2r	1d	4g
.	.	.	.	4f
.	1A	2r	.	4e
.	.	.	.	4d
2r	.	2A	2c#	2e
=88	=88	=88	=88	=88
2r	2D	2B	1d	2d
2D	2F	2A	.	2r
2E	2G	2c	2r	2r
=89	=89	=89	=89	=89
2D	2F	1d	2A	1r
1G	1E	.	2B	.
.	.	2c#	2G	2r
=90	=90	=90	=90	=90
2.F	2.D	1.d	2A	2r
.	.	.	1f	2a
4E	4E	.	.	.
2D	4F	.	.	2b
.	4G	.	.	.
=91	=91	=91	=91	=91
2C	1A	2r	2e	2a
1BB	.	2.D	1d	1dd
.	2G#	.	.	.
.	.	4E	.	.
=92	=92	=92	=92	=92
1AA	2.A	4F	2r	2.cc
.	.	4G	.	.
.	.	2A	2e	.
.	4G	.	.	4b
2r	4A	2F	2f	2a
.	4B	.	.	.
=93	=93	=93	=93	=93
1r	1.c	2C	2e	2g
.	.	2F	2a	2f
2r	.	2C	2g	2e
=94	=94	=94	=94	=94
1r	2r	2D	2.f	1d
.	2A	2F	.	.
.	.	.	4e	.
2r	2B	2G	2d	2r
=95	=95	=95	=95	=95
1r	2A	1A	2c	2a
.	1d	.	1B	2b
2r	.	2G#	.	2b
=96	=96	=96	=96	=96
1r	4c	2A	1.A	2.cc
.	4B	.	.	.
.	4A	2.c	.	.
.	4G	.	.	4b
2r	2F	.	.	2a
.	.	4A	.	.
=97	=97	=97	=97	=97
2r	2D	1d	1A	2f
2r	1A	.	.	1e
2AA	.	2c#	2a	.
=98	=98	=98	=98	=98
2BB	2D	2d	2g	2d
2AA	2E	4c	2.a	2r
.	.	4B	.	.
[2D	4F	2A	.	2r
.	4G	.	4g	.
=99	=99	=99	=99	=99
2D]	4A	2D	2f	2r
.	4F	.	.	.
2C	2c	2E	2g	2r
2BB	2d	2D	[2G	2d
=100	=100	=100	=100	=100
2C	2c	2.G	4G]	2e
.	.	.	4A	.
2GG	2B	.	2B	2d
.	.	4F	.	.
2AA	2A	2E	2c#	2a
=101	=101	=101	=101	=101
2D	1.A	2D	1d	2f
1AA	.	1E	.	2e
.	.	.	2c#	2a
=102	=102	=102	=102	=102
[1.D	[1.A	[1.D	[1.d	[1.f#
=103	=103	=103	=103	=103
1.D]	1.A]	1.D]	1.d]	1.f#]
==	==	==	==	==
*-	*-	*-	*-	*-
!!!CDT: 1525/^1526/-1594/2/2
!!!OCY: Italia
!!!AGN: Mass (Paraphrase)
!!!AST: renaissance, vocal
!!!ASW: Gregorian Mass
!!!PWK: Masses, Book Mantuan II
!!!RNB: Cadence finals: A,E
!!!YOR: Le Opere Complete, v. 19, p. 43
!!!YOO: Rome, Italy: Fratelli Scalera
!!!END: 1992//
!!!EED: John Miller
!!!YEC: Copyright 2000, John Miller
!!!YEN: United States of America
!!!YEM: Rights to all derivative electronic formats reserved.
!!!YEM: Refer to licensing agreement for further details.
!!!YEM: This file must be accompanied by the licensing agreement.
!!!YEM: A copy of the licensing agreement may be found at http://www.music-cog.ohio-state.edu/HumdrumDatabases/Palestrina/license.txt
!!!EMD: converted to Humdrum by Bret Aarden
